svg/file-icons/Pan.svg

<svg version="1.1" xmlns="http://www.w3.org/2000/svg" width="512px" height="512px"><path d="M488.4013672,47.1972656H23.5991211V0h464.8022461V47.1972656z M488.4013672,92.9604492H23.5991211v47.1972656h464.8022461V92.9604492z M209.5195312,185.9208984H23.5991211v47.1972656h185.9204102V185.9208984z M488.4013672,185.9208984H302.4804688v47.1972656h185.9208984V185.9208984z M209.5195312,278.8808594H23.5991211v47.1972656h185.9204102V278.8808594z M488.4013672,278.8808594H302.4804688v47.1972656h185.9208984V278.8808594z M488.4013672,371.8417969H23.5991211v47.1972656h464.8022461V371.8417969z M209.5195312,464.8027344H23.5991211V512h185.9204102V464.8027344z M488.4013672,464.8027344H302.4804688V512h185.9208984V464.8027344z"/></svg>

<svg xmlns="http://www.w3.org/2000/svg" width="512" height="512"><path d="M488.401 47.197H23.6V0h464.802v47.197zm0 45.763H23.6v47.198h464.802V92.96zM209.52 185.92H23.6v47.198h185.92v-47.197zm278.881 0h-185.92v47.198H488.4v-47.197zM209.52 278.88H23.6v47.198h185.92v-47.197zm278.881 0h-185.92v47.198H488.4v-47.197zm0 92.962H23.6v47.197h464.802v-47.197zm-278.881 92.96H23.6V512h185.92v-47.197zm278.881 0h-185.92V512H488.4v-47.197z"/></svg>
